X: 472
T:A Thousand Farewells
M:6/8
L:1/8
R:Jig
S: Tara Diamond at Milltown Flute Recital 2001
N:Edited into useful abc by Steve Mansfield
N:Posted to the woodenflute mailing list January 2002
Z:Pat Higgins
K:D
|dAF EFE|DBA AFD|F3 BAF|dAF e2f|dBA EFE|DBA A2D|F3 dAF|EFE D3:||
|DFA f2a|afe edB|ABA DFA|BAF E2A|dAd f3|afe dBA|BdB AFA|Bdc d3:||
Variations:
|daf efe|dBA AFD|F3 BAF|dAF e2f|dBA EFE|dBA AFD|F3 dAF|EFE D3||
|dAd f3|afe edB|A3 DFA|BAF EFA|dAd f3|afe dBA|BdB AFA|Bdc d3:||
<end>
<start>
